X:805
T:Millo Mallo
R:Other
C:Robert Byrnes
M:4/4
Z:From Cait Reed
K:D
DE|"D"{E}FA,"F#m"A,2A,2DC|"G"B,>A,B,<D"A"E2DE|\
"D"F3F "Em"G>F ED|"G"B,A, "A"B,C "D"D2DE|\
"D"{E}FA,A,2 "F#m"A,DC|"G"B,>A,B,<D"A"E2DE|\
"D"F3F "G"GF ED|"G"B,3C "D"D2A,2|\
"D"DE FG "Bm"A2A>F|"G"GF "(Bm)"E<D "A" E3A,|\
"D"DE FG "F#m"A>B AG|"D"F3G "A"A3A,|\
"D"DE FG "Bm"A2AF|"G"GF ED E2DE|\
"D"F3F "Em"G>F ED|"G"B3 "A"A, "D"D2||
